-----BEGIN PGP SIGNATURE-----

iQIzBAABCgAdFiEEW8rTHcyNXXIre3q9Lr4E58yBbTIFAmq2FUQACgkQLr4E58yB
bTKiMA//XPmWzKQao/a4RjLOzfX+0hq61pIDRUteotzXCG91lxLi2M1awJjsjulm
vWlDGOh5p64GOiYf0IVxqUwUj1qYgHZaJ5VXPxaYSWawNGfCCwXaSAHN0aE/4lU8
oV6OnqtMtmtWyABguFwgR9MC6oK5qDzpZQOIht5kG/wy7B3nn0629QEXWQFzhUtI
iBU30j+p1uUXxQe0PJbn6y1JUTPhdd/y0yBlN8dRHdujS+xNsxNt0k1wbaJsPksC
rQnteKtSY3OdxrapkgY2ZnKIkoTQamXctEc0OB9HzwnUtVOpG09u0883jfy1smLj
clw++EfvdPl0ou7B3lJUj8/2PjPLBBkFM2nc4E3C6Gs+U5CyD/hwWplq6MYLkt/6
aTjaOJoAl+MUa/kfgCs2kJ05pbDQlsZ8BAYPLuRQUzOTYWHMI9oY4eL+9nUyYPlN
xtBWnecHGvp2kuA05FmChxWZ2je21tjLXm0vhE64ncDHhhjdCZ1HHPHJ7+Kw7KEW
HaesJUFLDfmT9DLNkV966rhZhqo0uuuU0Ovj0GMBrhdpROVlyBLkm8En/iZrEuZf
kDzsdqKxDPP03Nv51bmWvrBUms7eAmTLNlbzMrbUXyM+WlNmZJ8egQCybMz2X+AF
a1o3CUg/es5dtJNnhVHn5YoDWKu96oSRA+ifrwH0Cgcu0kI6uOY=
=wbum
-----END PGP SIGNATURE-----
