-----BEGIN PGP SIGNATURE-----

iQIzBAABCgAdFiEEW8rTHcyNXXIre3q9Lr4E58yBbTIFAmoohBcACgkQLr4E58yB
bTJsaw//VAA9WEDJdEt0G/ThdP6J0yk+ibusrHzK7dazw2MXSZB1kKqAWxzSFAiB
JpqZ3MKs9X/KUNGpCVLH8nH7+bLabB41Zv53cIXW8s1+KMPkZEvSKaRKKnOVVt1i
lTugEjKogJEnT40tGZkZaLwMPCT31kIKBJLzqZ5h/rHYH9mBsguUzmPNVm32XtXV
jFsvyRp4J1MopLH0B2gtlF1/PVTROsSSvVtClJCmhkPAzPTSeWFnkc7ZgyRzWBuK
rNjCF7M3LmxrtJAxijGtUtuDcE6508lLi6f/pS8CczQArZ8v2Cuz5K9aboFgJZNf
/N40toMrDY2Fygh3vNOloLyBqhi/gHqbushYT7eXpaIP3ReXlpCGmhsadc8vzop5
5/KXJcQSwzkZAfnwdNJrYeLEh5YgXtvapQB0Fq6GXz/NDiOmCTfjGclqYMKANqeq
hTnOAWMRat+JAtX/djNCS+GCDy5QzL5E2d6zUIWlCXe0Nl71roojZUT4weCQt8mx
UBI1iqHGTMBDfLC70G82dY0gT0ql/WMWhgYhUgwAdDXfIQ3OBBOYwtJhe/4YX0Xj
1gXPBcXBM8uVMTuiA5bQSEKJo8rVuEF96gHcq/k//n9T+QoUeQRDxDMnEtNCPBvp
O7tBB4vrftCxpmx0XIY5/FlMnKDMJECwirpcNvTf0BsqLLqUVnE=
=3ypJ
-----END PGP SIGNATURE-----
